X:1
T: Rita's Fancy
C:Muriel A Johnstone
R:Strathspey
%Q: 128
K:A
M:4/4
L:1/16
|:E4|EA3 A3B c3B ce3|EA3 A3B c8|Ad3 d3e f3e fa3|ec3 B3A B4e4|
EA3 A3B c3B ce3|EA3 A3B c6e2|((3fga) e3a c3e A3c|B4 A4 A4 e4|
ea3 a3b a3b a3e|ea3 a3b c'4 c'2b2|af3 f3a ec3 c3e|d3c B3A F4E4|
EA3 A3B c3B ce3|Ae3 f3g a6g2|((3fga) e3a c3e A3c|B4 A4 A4:|
